src/people-body/person-sport/1F6B4-200D-2642-FE0F.svg

<svg id="emoji" viewBox="0 0 72 72" xmlns="http://www.w3.org/2000/svg">
  <g id="grid">
    <path fill="#b3b3b3" d="M0,68.6355H68.6358V0H0ZM3.8134,3.8131h61.01v61.01H3.8134Z"/>
    <path fill="none" stroke="#00a5ff" stroke-miterlimit="10" stroke-width="0.1" d="M56.3167,58.11H12.3194a1.8325,1.8325,0,0,1-1.8331-1.8331V12.28a1.8333,1.8333,0,0,1,1.8331-1.834H56.3167A1.8333,1.8333,0,0,1,58.15,12.28V56.2764A1.8325,1.8325,0,0,1,56.3167,58.11Z"/>
    <path fill="none" stroke="#00a5ff" stroke-miterlimit="10" stroke-width="0.1" d="M51.2348,64.8224H17.4013a2.1485,2.1485,0,0,1-2.1487-2.1486V5.9618a2.1485,2.1485,0,0,1,2.1487-2.1487H51.2348a2.1485,2.1485,0,0,1,2.1487,2.1487v56.712A2.1485,2.1485,0,0,1,51.2348,64.8224Z"/>
    <path fill="none" stroke="#00a5ff" stroke-miterlimit="10" stroke-width="0.1" d="M3.8134,51.2345V17.401A2.1484,2.1484,0,0,1,5.962,15.2524H62.674a2.1484,2.1484,0,0,1,2.1487,2.1486V51.2345a2.1484,2.1484,0,0,1-2.1487,2.1487H5.962A2.1484,2.1484,0,0,1,3.8134,51.2345Z"/>
    <circle cx="34.318" cy="34.3178" r="27.6449" fill="none" stroke="#00a5ff" stroke-miterlimit="10" stroke-width="0.1"/>
  </g>
  <g id="color"/>
  <g id="skin">
    <circle cx="32.7928" cy="10.5813" r="2.8598" fill="#fcea2b"/>
    <path fill="#fcea2b" d="M32.7928,19.9234l1.9066-2.7645,3.6224.0953,6.0056,13.4411-2.0019,3.6225-2.3832,2.3831L36.9872,47.3776l-3.2411,6.3869-2.2879-1.9066.858-6.7682-3.6225-6.6729.0954-3.1458,7.6261-4.7663-2.6691-7.15"/>
  </g>
  <g id="line">
    <circle cx="19.1613" cy="49.57" r="9.7234" fill="none" stroke="#000" stroke-miterlimit="10" stroke-width="2"/>
    <circle cx="49.666" cy="49.57" r="9.7234" fill="none" stroke="#000" stroke-miterlimit="10" stroke-width="2"/>
    <path fill="none" stroke="#000" stroke-linecap="round" stroke-linejoin="round" stroke-width="2" d="M19.2566,49.57l1.9066-22.8785h3.6224"/>
    <circle cx="32.7928" cy="10.5813" r="3" fill="none" stroke="#000" stroke-miterlimit="10" stroke-width="2"/>
    <path fill="none" stroke="#000" stroke-linecap="round" stroke-linejoin="round" stroke-width="2" d="M25.0713,26.7869,29.17,24.0224A11.8183,11.8183,0,0,0,31.84,21.3533l1.8113-2.5739a3.9415,3.9415,0,0,1,2.9551-1.5252A3.0555,3.0555,0,0,1,39.18,19.0654l4.3851,10.0094a4.7412,4.7412,0,0,1-.0954,3.4317l-.0953.1907A5.875,5.875,0,0,1,40.705,35.08l-5.243,2.2878a1.9349,1.9349,0,0,0-1.0486,2.4785l2.4785,6.101a2.2847,2.2847,0,0,1-.6673,2.6691,1.73,1.73,0,0,1-2.3832-.7626L29.647,40.0374a8.65,8.65,0,0,1-.8579-3.2411,3.6664,3.6664,0,0,1,1.62-2.5739l4.3851-2.7645a2.7844,2.7844,0,0,0,1.1439-2.86l-1.43-5.72"/>
    <path fill="none" stroke="#000" stroke-miterlimit="10" stroke-width="2" d="M36.2246,48.6168l-.9533,2.9552a2.6607,2.6607,0,0,1-2.2878,1.8112,1.6224,1.6224,0,0,1-1.5253-1.9066l.858-6.3869"/>
    <path fill="none" stroke="#000" stroke-miterlimit="10" stroke-width="2" d="M40.419,35.1757,36.9872,46.1383"/>
  </g>
</svg>

<svg viewBox="0 0 72 72" xmlns="http://www.w3.org/2000/svg"><path fill="#b3b3b3" d="M0 68.635h68.636V0H0zM3.813 3.813h61.01v61.01H3.813z"/><path fill="none" stroke="#00a5ff" stroke-miterlimit="10" stroke-width=".1" d="M56.317 58.11H12.319a1.833 1.833 0 01-1.833-1.833V12.28a1.833 1.833 0 011.833-1.834h43.998a1.833 1.833 0 011.833 1.834v43.996a1.833 1.833 0 01-1.833 1.834z"/><path fill="none" stroke="#00a5ff" stroke-miterlimit="10" stroke-width=".1" d="M51.235 64.822H17.4a2.148 2.148 0 01-2.148-2.148V5.962A2.148 2.148 0 0117.4 3.813h33.834a2.148 2.148 0 012.149 2.149v56.712a2.148 2.148 0 01-2.15 2.148z"/><path fill="none" stroke="#00a5ff" stroke-miterlimit="10" stroke-width=".1" d="M3.813 51.234V17.401a2.148 2.148 0 012.149-2.149h56.712a2.148 2.148 0 012.149 2.149v33.834a2.148 2.148 0 01-2.149 2.148H5.962a2.148 2.148 0 01-2.149-2.149z"/><circle cx="34.318" cy="34.318" r="27.645" fill="none" stroke="#00a5ff" stroke-miterlimit="10" stroke-width=".1"/><g stroke-linecap="round" stroke-miterlimit="10" stroke-width="6" stroke="#fff" fill="none" stroke-linejoin="round"><circle cx="19.161" cy="49.57" r="9.723"/><circle cx="49.666" cy="49.57" r="9.723"/><path d="M19.257 49.57l1.906-22.878h3.623"/><circle cx="32.793" cy="10.581" r="3"/><path d="M25.071 26.787l4.099-2.765a11.818 11.818 0 002.67-2.669l1.811-2.574a3.942 3.942 0 012.955-1.525 3.055 3.055 0 012.574 1.811l4.385 10.01a4.741 4.741 0 01-.095 3.432l-.096.19a5.875 5.875 0 01-2.669 2.383l-5.243 2.288a1.935 1.935 0 00-1.049 2.478l2.479 6.101a2.285 2.285 0 01-.667 2.67 1.73 1.73 0 01-2.384-.763l-4.194-7.817a8.65 8.65 0 01-.858-3.24 3.666 3.666 0 011.62-2.575l4.385-2.764a2.784 2.784 0 001.144-2.86l-1.43-5.72"/><path d="M36.225 48.617l-.954 2.955a2.66 2.66 0 01-2.287 1.811 1.622 1.622 0 01-1.526-1.906l.858-6.387m8.103-9.914l-3.432 10.962"/></g><g fill="#fcea2b"><circle cx="32.793" cy="10.581" r="2.86"/><path d="M32.793 19.923l1.906-2.764 3.623.095 6.005 13.441-2.002 3.623-2.383 2.383-2.955 10.677-3.24 6.387-2.289-1.907.858-6.768-3.622-6.673.095-3.146 7.626-4.766-2.669-7.15"/></g><g fill="none" stroke="#000" stroke-width="2"><circle cx="19.161" cy="49.57" r="9.723" stroke-miterlimit="10"/><circle cx="49.666" cy="49.57" r="9.723" stroke-miterlimit="10"/><path stroke-linecap="round" stroke-linejoin="round" d="M19.257 49.57l1.906-22.878h3.623"/><circle cx="32.793" cy="10.581" r="3" stroke-miterlimit="10"/><path stroke-linecap="round" stroke-linejoin="round" d="M25.071 26.787l4.099-2.765a11.818 11.818 0 002.67-2.669l1.811-2.574a3.942 3.942 0 012.955-1.525 3.055 3.055 0 012.574 1.811l4.385 10.01a4.741 4.741 0 01-.095 3.432l-.096.19a5.875 5.875 0 01-2.669 2.383l-5.243 2.288a1.935 1.935 0 00-1.049 2.478l2.479 6.101a2.285 2.285 0 01-.667 2.67 1.73 1.73 0 01-2.384-.763l-4.194-7.817a8.65 8.65 0 01-.858-3.24 3.666 3.666 0 011.62-2.575l4.385-2.764a2.784 2.784 0 001.144-2.86l-1.43-5.72"/><path stroke-miterlimit="10" d="M36.225 48.617l-.954 2.955a2.66 2.66 0 01-2.287 1.811 1.622 1.622 0 01-1.526-1.906l.858-6.387m8.103-9.914l-3.432 10.962"/></g></svg>
